dist/2.0.0/img/incon-linkedin-inverse.svg

<?xml version="1.0" encoding="UTF-8" standalone="no"?>
<svg width="23px" height="22px" viewBox="0 0 23 22" version="1.1" xmlns="http://www.w3.org/2000/svg" xmlns:xlink="http://www.w3.org/1999/xlink" xmlns:sketch="http://www.bohemiancoding.com/sketch/ns">
    <!-- Generator: Sketch 3.3 (11970) - http://www.bohemiancoding.com/sketch -->
    <title>incon-linkedin-inverse</title>
    <desc>Created with Sketch.</desc>
    <defs></defs>
    <g id="Desktop" stroke="none" stroke-width="1" fill="none" fill-rule="evenodd" sketch:type="MSPage">
        <g id="Desktop-HD" sketch:type="MSArtboardGroup" transform="translate(-336.000000, -420.000000)" fill="#FFFFFF">
            <g id="incon-linkedin-inverse" sketch:type="MSLayerGroup" transform="translate(336.000000, 420.000000)">
                <path d="M1.55042105,4.97189474 C1.99694737,5.41842105 2.61810526,5.64168421 3.36194737,5.64168421 L3.38736842,5.64168421 C4.18094737,5.64168421 4.801,5.41842105 5.27184211,4.97189474 C5.74378947,4.49994737 5.96705263,3.95394737 5.96705263,3.25984211 C5.96705263,2.59005263 5.71836842,2.01973684 5.27184211,1.57321053 C4.82531579,1.12668421 4.20526316,0.903421053 3.436,0.903421053 C2.66673684,0.903421053 2.04668421,1.12668421 1.57584211,1.57321053 C1.10389474,2.01973684 0.856315789,2.59005263 0.856315789,3.25984211 C0.856315789,3.95394737 1.07957895,4.49994737 1.55042105,4.97189474 L1.55042105,4.97189474 Z M1.12931579,21.2214737 L5.69405263,21.2214737 L5.69405263,7.52726316 L1.12931579,7.52726316 L1.12931579,21.2214737 Z M12.7644211,21.2214737 L12.7644211,13.5796842 C12.7644211,13.1088421 12.8141579,12.7363684 12.9136316,12.4633684 C13.1114737,11.9925263 13.4098947,11.5957368 13.8066842,11.273 C14.1780526,10.9502632 14.6743158,10.8010526 15.2700526,10.8010526 C16.0636316,10.8010526 16.6339474,11.0740526 17.0064211,11.6200526 C17.3788947,12.1660526 17.5767368,12.9353158 17.5767368,13.9024211 L17.5767368,21.2214737 L22.1414737,21.2214737 L22.1414737,13.3818421 C22.1414737,11.3470526 21.6706316,9.80963158 20.7035263,8.76736842 C19.7353158,7.72510526 18.4697895,7.20452632 16.8826316,7.20452632 C16.3123158,7.20452632 15.7663158,7.27857895 15.2943684,7.42778947 C14.8235263,7.55157895 14.4267368,7.75052632 14.0796842,8.02242105 C13.7569474,8.27110526 13.5082632,8.51868421 13.3104211,8.74305263 C13.1114737,8.96521053 12.9136316,9.21389474 12.739,9.51121053 L12.7644211,9.51121053 L12.7644211,7.52726316 L8.19968421,7.52726316 L8.224,8.19705263 L8.224,12.2898421 C8.224,14.5722105 8.224,17.5497895 8.19968421,21.2214737 L12.7644211,21.2214737 L12.7644211,21.2214737 Z" id="Fill-54" sketch:type="MSShapeGroup"></path>
            </g>
        </g>
    </g>
</svg>

<svg width="23" height="22" viewBox="0 0 23 22" xmlns="http://www.w3.org/2000/svg"><title>incon-linkedin-inverse</title><path d="M1.55 4.972c.447.446 1.068.67 1.812.67h.025c.794 0 1.414-.224 1.885-.67.472-.472.695-1.018.695-1.712 0-.67-.249-1.24-.695-1.687-.447-.446-1.067-.67-1.836-.67-.77 0-1.39.224-1.86.67a2.246 2.246 0 0 0-.72 1.687c0 .694.224 1.24.694 1.712zm-.42 16.25h4.564V7.526H1.13V21.22zm11.634 0V13.58c0-.471.05-.844.15-1.117a3.02 3.02 0 0 1 .893-1.19c.371-.323.867-.472 1.463-.472.794 0 1.364.273 1.736.82.373.545.57 1.314.57 2.281v7.32h4.565v-7.84c0-2.035-.47-3.572-1.437-4.615-.969-1.042-2.234-1.562-3.821-1.562-.57 0-1.117.074-1.589.223-.47.124-.867.323-1.214.594a5.456 5.456 0 0 0-.77.721c-.199.222-.396.47-.571.768h.025V7.527H8.2l.024.67v4.093c0 2.282 0 5.26-.024 8.931h4.564z" fill="#FFF" fill-rule="evenodd"/></svg>
